assets/img/braze_icons/check.svg

<svg fill="none" height="24" viewBox="0 0 24 24" width="24" xmlns="http://www.w3.org/2000/svg"><path clip-rule="evenodd" d="m20.7071 5.29289c.3905.39053.3905 1.02369 0 1.41422l-10.99999 10.99999c-.39053.3905-1.02369.3905-1.41422 0l-5-5c-.39052-.3905-.39052-1.0237 0-1.4142.39053-.3905 1.02369-.3905 1.41422 0l4.29289 4.2929 10.2929-10.29291c.3905-.39052 1.0237-.39052 1.4142 0z" fill="#801ed7" fill-rule="evenodd"/></svg>

<svg width="24" height="24" viewBox="0 0 24 24" fill="none" xmlns="http://www.w3.org/2000/svg">
<path fill-rule="evenodd" clip-rule="evenodd" d="M20.7071 5.29289C21.0976 5.68342 21.0976 6.31658 20.7071 6.70711L9.70711 17.7071C9.31658 18.0976 8.68342 18.0976 8.29289 17.7071L3.29289 12.7071C2.90237 12.3166 2.90237 11.6834 3.29289 11.2929C3.68342 10.9024 4.31658 10.9024 4.70711 11.2929L9 15.5858L19.2929 5.29289C19.6834 4.90237 20.3166 4.90237 20.7071 5.29289Z" fill="#801ED7"/>
</svg>
